images/new-mixvel-logo.svg

<svg width="141" height="23" viewBox="0 0 141 23" fill="none" xmlns="http://www.w3.org/2000/svg">
<g clip-path="url(#clip0_5_2622)">
<path d="M121.858 16.3554V4.5221C121.858 4.08641 122.2 3.73322 122.621 3.73322H125.674C126.095 3.73322 126.437 4.08641 126.437 4.5221V15.9609C126.437 16.1788 126.608 16.3554 126.818 16.3554H139.409C139.831 16.3554 140.172 16.7086 140.172 17.1443V17.9332C140.172 18.8045 139.489 19.5109 138.646 19.5109H124.911C123.225 19.5109 121.858 18.0981 121.858 16.3554Z" fill="white"/>
<path d="M100.492 16.3554V6.88876C100.492 5.146 101.858 3.73322 103.544 3.73322H114.99C115.412 3.73322 115.754 4.08641 115.754 4.5221V5.31099C115.754 6.18236 115.07 6.88876 114.227 6.88876H105.452C105.241 6.88876 105.07 7.06536 105.07 7.28321V9.64987C105.07 9.86771 105.241 10.0443 105.452 10.0443H111.938C112.36 10.0443 112.701 10.3975 112.701 10.8332C112.701 11.7045 111.938 13.1998 109.649 13.1998H105.452C105.241 13.1998 105.07 13.3764 105.07 13.5943V15.9609C105.07 16.1788 105.241 16.3554 105.452 16.3554H118.043C118.464 16.3554 118.806 16.7086 118.806 17.1443V17.9332C118.806 18.8045 118.123 19.5109 117.28 19.5109H103.544C101.858 19.5109 100.492 18.0981 100.492 16.3554Z" fill="white"/>
<path d="M85.3279 22.2641C85.3159 22.242 85.3034 22.2199 85.2891 22.1991L73.0314 4.35445C73.0243 4.34405 73.0178 4.33312 73.0128 4.32152C72.902 4.06318 73.0846 3.76798 73.362 3.76798H77.143C77.693 3.76798 78.198 4.0736 78.4685 4.56362C78.4961 4.6138 78.5248 4.66357 78.5582 4.71013L87.5258 17.2101C87.5341 17.2217 87.5413 17.2342 87.5482 17.2468C87.6969 17.5181 88.0834 17.5117 88.2209 17.2276L95.8517 1.44981C96.1102 0.915284 96.6388 0.577637 97.2169 0.577637H99.4716C99.7552 0.577637 99.9398 0.886216 99.813 1.14848L90.2494 20.9221C89.7324 21.9912 88.6755 22.6665 87.5193 22.6665H85.9931C85.7165 22.6665 85.4625 22.5118 85.3279 22.2641Z" fill="white"/>
<path d="M44.0237 4.5221C44.0237 4.08641 44.3653 3.73322 44.7868 3.73322H45.5499C47.2356 3.73322 48.6022 5.146 48.6022 6.88876V18.722C48.6022 19.1577 48.2605 19.5109 47.8391 19.5109H45.5499C44.707 19.5109 44.0237 18.8045 44.0237 17.9332V4.5221Z" fill="white"/>
<path d="M11.8686 3.95123L0.0407727 22.0956C-0.0860712 22.3579 0.0984029 22.6665 0.382035 22.6665H2.59449C3.17256 22.6665 3.74341 22.3288 4.00193 21.7943C4.25702 21.2669 12.1812 9.49112 12.3916 9.17845C12.3982 9.16863 12.3984 9.16662 12.404 9.1562C12.5452 8.89279 12.9088 8.88683 13.0601 9.13832L17.2776 14.7776C18.8038 17.1443 20.3299 17.1443 21.8942 14.7776L26.1314 7.59434C26.272 7.30361 26.6733 7.30361 26.8139 7.59434L36.247 21.8776C36.5056 22.4121 37.034 22.6665 37.6121 22.6665H41.7343C42.018 22.6665 42.2024 22.3579 42.0756 22.0956L28.8388 2.27055C28.7876 2.19388 28.7425 2.11435 28.6961 2.03469C28.4812 1.66568 27.74 0.577637 26.4727 0.577637H25.9454C25.8008 0.577637 25.6687 0.662048 25.6041 0.79568L19.9461 10.9165C19.8118 11.1942 19.4397 11.2066 19.284 10.9538L14.1298 4.33644C13.7479 3.90331 13.0554 3.73319 12.7371 3.73319H12.2098C12.0653 3.73319 11.9332 3.8176 11.8686 3.95123Z" fill="white"/>
<path d="M53.1806 3.73317H54.7068C56.0095 3.73317 56.9155 3.56659 58.5222 5.31094L63.1007 10.8332L70.1216 18.9036C70.1416 18.9278 70.1595 18.9542 70.1699 18.9841C70.2577 19.2357 70.0783 19.5109 69.8104 19.5109H67.6792C66.5231 19.5109 65.4706 19.6775 63.8638 17.9332L59.2853 12.4109L52.8672 4.3388C52.8487 4.31568 52.832 4.29069 52.822 4.26251C52.7321 4.0103 52.9118 3.73317 53.1806 3.73317Z" fill="white"/>
<path d="M55.6934 19.2799L70.0803 4.40657C70.3206 4.15809 70.1504 3.73322 69.8105 3.73322H68.1805C67.371 3.73322 66.5946 4.06567 66.0222 4.65745L52.3058 18.8376C52.0655 19.0861 52.2357 19.5109 52.5756 19.5109H55.1538C55.3562 19.5109 55.5503 19.4278 55.6934 19.2799Z" fill="white"/>
</g>
<defs>
<clipPath id="clip0_5_2622">
<rect width="141" height="23" fill="white"/>
</clipPath>
</defs>
</svg>

<svg width="141" height="23" fill="none" xmlns="http://www.w3.org/2000/svg"><g clip-path="url(#clip0_5_2622)" fill="#fff"><path d="M121.858 16.355V4.522c0-.436.342-.789.763-.789h3.053c.421 0 .763.353.763.79V15.96c0 .218.171.394.381.394h12.591c.422 0 .763.354.763.79v.788c0 .872-.683 1.578-1.526 1.578h-13.735c-1.686 0-3.053-1.413-3.053-3.156zm-21.366 0V6.89c0-1.743 1.366-3.156 3.052-3.156h11.446c.422 0 .764.353.764.79v.788c0 .871-.684 1.578-1.527 1.578h-8.775a.388.388 0 00-.382.394V9.65c0 .218.171.394.382.394h6.486c.422 0 .763.354.763.79 0 .87-.763 2.366-3.052 2.366h-4.197a.388.388 0 00-.382.394v2.367c0 .218.171.394.382.394h12.591c.421 0 .763.354.763.79v.788c0 .872-.683 1.578-1.526 1.578h-13.736c-1.686 0-3.052-1.413-3.052-3.156zm-15.164 5.909a.724.724 0 00-.039-.065L73.031 4.354a.198.198 0 01-.018-.032c-.111-.259.072-.554.349-.554h3.781c.55 0 1.055.306 1.326.796.027.05.056.1.09.146l8.967 12.5a.36.36 0 01.022.037.376.376 0 00.673-.02L95.85 1.45a1.522 1.522 0 011.366-.872h2.255c.283 0 .468.308.341.57l-9.564 19.774c-.517 1.07-1.573 1.744-2.73 1.744h-1.526a.76.76 0 01-.665-.402zM44.024 4.522c0-.436.341-.789.763-.789h.763c1.686 0 3.052 1.413 3.052 3.156v11.833a.776.776 0 01-.763.789h-2.29c-.842 0-1.525-.706-1.525-1.578V4.523zm-32.155-.571L.04 22.096c-.127.262.057.57.341.57h2.212c.579 0 1.15-.337 1.408-.872.255-.527 8.18-12.303 8.39-12.616l.012-.022a.375.375 0 01.656-.018l4.218 5.64c1.526 2.366 3.052 2.366 4.616 0l4.237-7.184a.377.377 0 01.683 0l9.433 14.284c.259.534.787.788 1.365.788h4.122c.284 0 .468-.308.342-.57L28.839 2.27c-.051-.077-.096-.157-.143-.236-.215-.37-.956-1.457-2.223-1.457h-.528a.38.38 0 00-.34.218l-5.659 10.12a.376.376 0 01-.662.038L14.13 4.336c-.382-.433-1.075-.603-1.393-.603h-.527a.38.38 0 00-.341.218zm41.311-.218h1.527c1.303 0 2.209-.166 3.815 1.578l4.579 5.522 7.02 8.07c.02.025.038.051.049.081.088.252-.092.527-.36.527h-2.13c-1.157 0-2.21.166-3.816-1.578l-4.579-5.522-6.418-8.072a.267.267 0 01-.045-.076c-.09-.253.09-.53.359-.53z"/><path d="M55.693 19.28L70.08 4.407c.24-.249.07-.674-.27-.674h-1.63c-.809 0-1.585.333-2.158.924l-13.716 14.18c-.24.25-.07.674.27.674h2.578a.75.75 0 00.54-.231z"/></g><defs><clipPath id="clip0_5_2622"><path fill="#fff" d="M0 0h141v23H0z"/></clipPath></defs></svg>
